X:59
T:Dance of the Demon Daffodils
M:4/4
R:polka 48
K:Emin
eeee ^d2 e2|B2 ee ^d2 e2|f2 B2 a2 B2|ggge f4|
eeee ^d2 e2|B2 ee ^d2 e2|ccce B2 GA|^A2 B2 E4:||
G2 dd ^c2 d2|G2 d2 ^c2 d2|A2 ee ^d2 e2|A2 e2 ^d2 e2|
B2 BB g4|B2 BB f4|e2 BB BBBB|^A2 B2 G2 F2|
E2 BB ^A2 B2|G2 e2 ^d2 e2|B2 ff=f2 ^f2|B2 b2 ^a2 b2|
ggge f4|ggge f3 B|ggge f2 B2|^A2 B2 E4||

